X: 19540
T: James Bryan's
R: reel
M: 4/4
K: Gmajor
BA|GDEB, D2D2|B,DGB AGBA|GDEB, D2D2|B,DGB G2 BA|
GDEB, D2D2|GBdf e2 ef|gfed g2B2|AGBA G2:|
|:ge|d2B2B2B2|ABcd e2 ge|d2B2B2B2|cBAG A2 ge|
d2B2B2B2|ABcd e2ef|gfed g2B2|AGBA G2:|

